X:1
T:David Poer, Esqr.
T:David Poer, Esqr.
T:Carolan
C:Carolan
L:1/8
M:4/4
K:F
V:1 treble 
V:1
 fgfg f2 c2 | fgaf gabg | c'afa gece | fgfg f2 c2 | gaga g2 d2 | affg af f2 | (g/a/b/a/) gf efge | %7
 fcAF GABG | ABcA Bcdc | Bdcf efge | f2 fg [Acf]4 || (a/b/c'/b/) ag fgfc | fgfc defg | dBfB dBBf | %14
 ecgc eccB | AF A/B/c AFFc | BG (B/c/d) BG G2 | (d/e/f) (e/f/g) (d/e/f) (e/f/g) Tf2 fc Tf2 fc | %18
 (3BdB (3dfd fb | c'bag Tf2 c2 | AfcF AFFc | BGdG BG G2 | ef g2 fe d2 | cBAG Ff gf/e/ | [Acf]8 || %25

